svg/300/outlined/format_h4-fill.svg

<svg xmlns="http://www.w3.org/2000/svg" width="48" height="48" viewBox="0 -960 960 960"><path d="M140.001-290.001v-379.998h45.384v167.307h194.616v-167.307h45.384v379.998h-45.384v-167.307H185.385v167.307h-45.384Zm594.614 0v-127.307h-200v-252.691h45.384v207.307h154.616v-207.307h45.384v207.307h80v45.384h-80v127.307h-45.384Z"/></svg>

<svg xmlns="http://www.w3.org/2000/svg" width="48" height="48" viewBox="0 -960 960 960"><path d="M140-290v-380h45.39v167.31H380V-670h45.39v380H380v-167.31H185.39V-290H140Zm594.61 0v-127.31h-200V-670H580v207.31h154.61V-670H780v207.31h80v45.38h-80V-290h-45.39Z"/></svg>
